!!!!SEGMENT: pl-wtm--r-1761_stefani-jozef--orchestral-piece.krn
!!!cenid: 18xx:1911
!!!COM: Stefani, Józef
!!!COM-rismid: pe30024097
!!!CDT: 1800/04/16-1876/03/19
!!!CNT: Polish
!!!OTL: Orchestral piece
!!!PDT:
!!!AGN: Secular
!!!SMS-siglum: PL-Wtm
!!!SMS-shelfmark: R 1761
!!!SMS-shelfwork: W
!!!SMS-variant:
!!!SMS-altvar:
!!!NIFC-rismid: 1001131404
!!!URL-scan: http://repozytorium.nifc.pl/skany/pl-wtm-nut--r1760--r1761
!!!ONB-nifc: UWAGA: druga partytura, skany 0009-0012
**kern	**kern	**kern	**kern	**kern	**kern	**kern	**kern	**kern	**dynam	**kern	**dynam	**kern	**dynam	**kern	**kern	**kern	**kern	**kern	**kern	**dynam
*part17	*part16	*part15	*part14	*part13	*part12	*part11	*part10	*part9	*part9	*part8	*part8	*part7	*part7	*part6	*part5	*part4	*part3	*part2	*part1	*part1
*staff17	*staff16	*staff15	*staff14	*staff13	*staff12	*staff11	*staff10	*staff9	*	*staff8	*	*staff7	*	*staff6	*staff5	*staff4	*staff3	*staff2	*staff1	*
*Itimp	*Icbass	*Icello	*Iviola	*Ivioln	*Ivioln	*Iempty	*Itromt	*Itromt	*	*Itromp	*	*Ifagot	*	*Icor	*Icor	*Iclars	*Ioboe	*Ipicco	*Ipicco	*
*I"Timpani d. a.	*I"C: Baſsi	*I"Violoncelli	*I"Viole	*I"Violini	*I"Violini	*I"Banda	*I"Tromboni	*I"Tromboni	*	*I"Trombe in C	*	*I"Fagotti	*	*I"Corni	*I"Corni	*I"Clarinetti in C	*I"Oboe	*I"Picolini	*I"Picolini	*
*>[A,A,B,B]	*>[A,A,B,B]	*>[A,A,B,B]	*>[A,A,B,B]	*>[A,A,B,B]	*>[A,A,B,B]	*>[A,A,B,B]	*>[A,A,B,B]	*>[A,A,B,B]	*>[A,A,B,B]	*>[A,A,B,B]	*>[A,A,B,B]	*>[A,A,B,B]	*>[A,A,B,B]	*>[A,A,B,B]	*>[A,A,B,B]	*>[A,A,B,B]	*>[A,A,B,B]	*>[A,A,B,B]	*>[A,A,B,B]	*>[A,A,B,B]
*>A	*>A	*>A	*>A	*>A	*>A	*>A	*>A	*>A	*>A	*>A	*>A	*>A	*>A	*>A	*>A	*>A	*>A	*>A	*>A	*>A
*stria1	*	*	*	*	*	*	*	*	*	*	*	*	*	*	*	*	*	*	*	*
*clefF1	*clefF4	*clefF4	*clefC3	*clefG2	*clefG2	*clefF4	*clefF4	*clefC4	*	*clefG2	*	*clefF4	*	*clefG2	*clefG2	*clefG2	*clefG2	*clefG2	*clefG2	*
*	*	*	*	*	*	*	*	*	*	*	*	*	*	*ITrd6c10	*ITrd6c10	*	*	*	*	*
*	*k[f#c#]	*k[f#c#]	*k[f#c#]	*k[f#c#]	*k[f#c#]	*	*k[f#c#]	*k[f#c#]	*	*k[f#c#]	*	*k[f#c#]	*	*k[f#c#]	*k[f#c#]	*k[f#c#]	*k[f#c#]	*k[f#c#]	*k[f#c#]	*
*	*b:	*b:	*b:	*b:	*b:	*	*b:	*b:	*	*b:	*	*b:	*	*b:	*b:	*b:	*b:	*b:	*b:	*
*M2/4	*M2/4	*M2/4	*M2/4	*M2/4	*M2/4	*M2/4	*M2/4	*M2/4	*	*M2/4	*	*M2/4	*	*M2/4	*M2/4	*M2/4	*M2/4	*M2/4	*M2/4	*
*all\right	*all\right	*all\right	*all\right	*all\right	*all\right	*all\right	*all\right	*all\right	*	*all\right	*	*all\right	*	*all\right	*all\right	*all\right	*all\right	*all\right	*all\right	*
=1	=1	=1	=1	=1	=1	=1	=1	=1	=1	=1	=1	=1	=1	=1	=1	=1	=1	=1	=1	=1
!	!	!	!	!	!	!	!	!	!	!	!	!	!	!	!	!	!	!	!	!LO:DY:rj
.	(32qqF#/LLL	(y32qqF#/LLLyy	(32qqf#/LLL	(32qqf#/LLL	(32qqff#/LLL	.	.	.	.	.	.	(32qqF#/LLL	.	.	.	(32qqf#/LLL	(32qqff#/LLL	(32qqff#/LLL	(32qqff#/LLL	f
.	32qqG#X/	32qqG#X/yy	32qqg#X/	32qqg#X/	32qqgg#X/	.	.	.	.	.	.	32qqG#X/	.	.	.	32qqg#X/	32qqgg#X/	32qqgg#X/	32qqgg#X/	.
.	32qqA#X/JJJ)	32qqA#X/JJJ)yy	32qqa#X/JJJ)	32qqa#X/JJJ	32qqaa#X/JJJ	.	.	.	.	.	.	32qqA#X/JJJ)	.	.	.	32qqa#X/JJJ)	32qqaa#X/JJJ)	32qqaa#X/JJJ	32qqaa#X/JJJ)	.
*	*	*	*	*	*	*^	*	*	*	*	*	*	*	*	*	*	*	*	*	*
!LO:SIC:s=8D/	!	!	!	!	!	!	!	!	!	!	!	!	!	!LO:DY:rj	!	!	!	!	!	!	!
8Re/	8B\L	8B\Lyy	8b\L	8b/L)	8bb\L)	4Ree/	4Ra\	8r	8r	.	8r	f	8B\L	f	2ryy	2ryy	8b/L	8bb\L	8bb\L)	8bb\L	.
8r	(16B\L	(y16B\Lyy	(16b\L	(16b/L	(16b\L	.	.	(16BB/LL	(16B\LL	.	(16b\LL	.	(16B\L	.	.	.	(16b/L	(16b\L	(16b\L	(16bb\L	.
.	16F#\JJ)	16F#\JJ)yy	16f#\JJ)	16a#X/JJ)	16cc#\JJ)	.	.	16FF#/JJ)	16c#JJ 16A#X\)	.	16cc#JJ 16a#X\)	.	16F#\JJ)	.	.	.	16cc#JJ 16a#X/)	16cc#JJ 16a#X\)	16cc#\JJ)	16ccc#\JJ)	.
4r	8B\L|	8B\L|yy	8b\L	8b/L|	8dd|\L	4r	4ryy	8BB'\L	8dL 8B'\	.	8ddL 8b'\	.	8B'\L	.	.	.	8ddL 8b'\	8ddL 8b'\	8dd'\L	8ddd'\L	.
!	!LO:SIC:v:s=8Gn	!LO:SIC:v:s=8Gn	!LO:SIC:v:s=8gn	!	!	!	!	!	!	!	!	!	!LO:SIC:v:s=8Gn	!	!	!	!	!	!	!	!
.	8G#y\J|	8G#y\J|yy	8g#y\J	8b/J|	8ee|\J	.	.	8G'\J	8eJ 8B'\	.	8eeJ 8b'\	.	8G#y'\J	.	.	.	8eeJ 8b'\	8eeJ 8b'\	8ee'\J	8eee'\J	.
*	*	*	*	*	*	*v	*v	*	*	*	*	*	*	*	*	*	*	*	*	*	*
=2	=2	=2	=2	=2	=2	=2	=2	=2	=2	=2	=2	=2	=2	=2	=2	=2	=2	=2	=2	=2
*	*	*	*	*	*	*	*	*	*	*	*	*^	*	*	*	*^	*	*	*	*
2r	8F#\|	8F#\|yy	8f#\	8a#X/	8ff#\|	2r	8F#\	8f# 8A#X\	.	8ff# 8a#X\	.	8F#\	4ryy	.	2ryy	2ryy	8ff# 8a#X\	8ryy	8ff# 8a#X\	8ff#\	8fff#\	.
.	(8E\L	(y8E\Lyy	8a#XL 8c#\	8cc#L 8f#/	(8aa#X\L	.	8r	8r	.	8r	.	(8E\L	.	.	.	.	4ff#/	8cc#\L	(8aa#XL 8cc#\	(8cc#\L	(8aa#X\L	.
.	8D\J)	8D\J)yy	8bJ 8d\	8ddJ 8f#/	8bb\J)	.	4r	4r	.	8r	.	8D\J)	8ryy	.	.	.	.	8b\J	8bbJ 8dd\)	8dd\J)	8bb\J)	.
.	8BB\	8BB\yy	8r	8dd\	8ddd\|	.	.	.	.	8dd 8b\	.	8B/	8BB/	.	.	.	8dd/	8dd\	8r	8r	8r	.
*	*	*	*	*	*	*	*	*	*	*	*	*v	*v	*	*	*	*	*	*	*	*	*
=3	=3	=3	=3	=3	=3	=3	=3	=3	=3	=3	=3	=3	=3	=3	=3	=3	=3	=3	=3	=3	=3
*	*	*	*	*	*	*^	*	*	*	*^	*	*	*	*	*	*	*	*	*	*	*
*	*	*	*	*	*	*tremolo	*	*	*	*	*	*	*	*	*	*	*	*	*	*2\right	*2\right	*2\right	*
2r	4FF#/	4FF#/yy	8r	8ff#'\L	8fff#\L	16Ree/LL	4Ra\	4FF#/	8r	.	8ff#/L	4a#X\	.	4F# 4FF#/	.	2ryy	2ryy	8ff#'/L	8ff#\L	2ff#t\	2ff#t\	2ff#t\	.
.	.	.	.	.	.	16Ree/	.	.	.	.	.	.	.	.	.	.	.	.	.	.	.	.	.
.	.	.	8e 8c#\	(16ee\L	(16eee\L	16Ree/	.	.	8e 8c#\	.	16ee/L	.	.	.	.	.	.	(16ee/L	16ee\L	.	.	.	.
.	.	.	.	16dd\JJ	16ddd\JJ	16Ree/	.	.	.	.	16dd/JJ	.	.	.	.	.	.	16dd/JJ)	16dd\JJ	.	.	.	.
.	4AA#X/	4AA#X/yy	4e 4c#\	4cc#\)	4ccc#\)	16Ree/	4r	4AA#X/	4e 4c#\	.	4cc#/	4cc#\	.	4A#X 4AA#X/	.	.	.	4cc#/	4cc#\	.	.	.	.
.	.	.	.	.	.	16Ree/	.	.	.	.	.	.	.	.	.	.	.	.	.	.	.	.	.
.	.	.	.	.	.	16Ree/	.	.	.	.	.	.	.	.	.	.	.	.	.	.	.	.	.
.	.	.	.	.	.	16Ree/JJ	.	.	.	.	.	.	.	.	.	.	.	.	.	.	.	.	.
=4	=4	=4	=4	=4	=4	=4	=4	=4	=4	=4	=4	=4	=4	=4	=4	=4	=4	=4	=4	=4	=4	=4	=4
2r	4BB/	4BB/yy	8r	(16ee\LL	(16eee\LL	16Ree/LL	4Ra\	4BB/	8r	.	16ee/LL	4b\	.	4B 4BB\	.	2ryy	2ryy	(16ee/LL	16ee\LL	2ff#t\	2ff#t\	2ff#t\	.
.	.	.	.	16dd\)	16ddd\)	16Ree/	.	.	.	.	16dd/	.	.	.	.	.	.	16dd/)	16dd\	.	.	.	.
.	.	.	8d 8B/	(16dd\	(16ddd\	16Ree/	.	.	8d 8B\	.	16dd/	.	.	.	.	.	.	(16dd/	16dd\	.	.	.	.
.	.	.	.	16cc#\JJ)	16ccc#\JJ)	16Ree/	.	.	.	.	16cc#/JJ	.	.	.	.	.	.	16cc#/JJ)	16cc#\JJ	.	.	.	.
.	(32qqBB/LLL	(32qqBB/LLLyy	.	.	.	.	.	.	.	.	.	.	.	(32qqBLLL 32qqBB\	.	.	.	.	.	.	.	.	.
.	32qqC#/JJJ	32qqC#/JJJyy	.	.	.	.	.	.	.	.	.	.	.	32qqc#JJJ 32qqC#\	.	.	.	.	.	.	.	.	.
.	4D/)	4D/)yy	4d 4B/	4b\	4bb\	16Ree/	4r	4D/	4f# 4B\	.	4b/	4b\	.	4d 4D\)	.	.	.	4b\	4ryy	.	.	.	.
.	.	.	.	.	.	16Ree/	.	.	.	.	.	.	.	.	.	.	.	.	.	.	.	.	.
.	.	.	.	.	.	16Ree/	.	.	.	.	.	.	.	.	.	.	.	.	.	.	.	.	.
.	.	.	.	.	.	16Ree/JJ	.	.	.	.	.	.	.	.	.	.	.	.	.	.	.	.	.
*	*	*	*	*	*	*Xtremolo	*	*	*	*	*	*	*	*	*	*	*	*	*	*	*	*	*
*	*	*	*	*	*	*	*	*	*	*	*v	*v	*	*	*	*	*	*v	*v	*	*	*	*
!!LO:PB:g=original
=5	=5	=5	=5	=5	=5	=5	=5	=5	=5	=5	=5	=5	=5	=5	=5	=5	=5	=5	=5	=5	=5
.	(32qqF#/LLL	(y32qqF#/LLLyy	(32qqf#/LLL	(32qqf#/LLL	(32qqff#/LLL	.	.	.	.	.	.	.	(32qqF#/LLL	.	.	.	(32qqf#/LLL	(32qqff#/LLL	(32qqff#/LLL	(32qqff#/LLL	.
.	32qqG#X/	32qqG#X/yy	32qqg#X/	32qqg#X/	32qqgg#X/	.	.	.	.	.	.	.	32qqG#X/	.	.	.	32qqg#X/	32qqgg#X/	32qqgg#X/	32qqgg#X/	.
.	32qqA#X/JJJ	32qqA#X/JJJyy	32qqa#X/JJJ	32qqa#X/JJJ	32qqaa#X/JJJ)	.	.	.	.	.	.	.	32qqA#X/JJJ)	.	.	.	32qqa#X/JJJ)	32qqaa#X/JJJ)	32qqaa#X/JJJ)	32qqaa#X/JJJ)	.
!LO:SIC:s=8D/	!	!	!	!	!	!	!	!	!	!	!	!	!	!	!	!	!	!	!	!	!
8Re/	8B\L)	8B\L)yy	8b\L)	8b/L)	8bb\L	4Ree/	4Ra\	8r	8r	.	8r	.	8B\L	.	2ryy	2ryy	8b/L	8bb\L	8bb\L	8bb\L	.
8r	(16B\L	(y16B\Lyy	16b\L	(16b/L	(16b\L	.	.	(16BB/LL	16B\LL	.	(16b/LL	.	(16B\L	.	.	.	16b/L	16b\L	16b\L	(16bb\L	.
.	16F#\JJ)	16F#\JJ)yy	16f#\JJ	16a#/JJ)	16cc#\JJ)	.	.	16FF#/JJ)	16c#JJ 16A#X\	.	16cc#JJ 16a#X/)	.	16F#\JJ)	.	.	.	16cc#JJ 16a#X/	16cc#JJ 16a#X\	16cc#\JJ	16ccc#\JJ)	.
!	!	!	!	!	!	!	!	!LO:TX:t=P:problem:mixed beam	!	!	!	!	!	!	!	!	!	!	!	!	!
4r	8B'\L	8B'\Lyy	8b\L	8b/L	8dd'\L	4r	4ryy	8BB/L	8dL 8B\	.	8ddL 8b\	.	8B'\L	.	.	.	8ddL 8b\	8ddL 8b\	8dd\L	8ddd'\L	.
!	!LO:SIC:v:s=8Gn	!LO:SIC:v:s=8Gn	!LO:SIC:v:s=8gn	!	!	!	!	!	!	!	!	!	!LO:SIC:v:s=8Gn	!	!	!	!	!	!	!	!
.	8G#y'\J	8G#y'\Jyy	8g#y\J	8b/J	8ee'\J	.	.	8G\J	8eJ 8B\	.	8eeJ 8b\	.	8G#y'\J	.	.	.	8eeJ 8b\	8eeJ 8b\	8ee\J	8eee'\J	.
=6	=6	=6	=6	=6	=6	=6	=6	=6	=6	=6	=6	=6	=6	=6	=6	=6	=6	=6	=6	=6	=6
*	*	*	*	*	*	*	*	*	*	*	*	*	*^	*	*	*	*^	*	*	*	*
4r	8F#\	8F#\yy	8f#\	8a#X/	8ff#\	4r	4ryy	8F#\	8f# 8A#X\	.	8ff# 8a#X\	.	8F#\	8ryy	.	2ryy	2ryy	8ff# 8a#X\	8ryy	8ff# 8a#X\	8ff#\	8fff#\	.
!	!LO:TX:t=P:problem:mixed beam	!LO:TX:t=P:problem:mixed beam	!	!	!	!	!	!	!	!	!	!	!	!	!	!	!	!	!	!	!	!	!
.	8F#\L	8F#\Lyy	8f#L 8c#\	8eeL 8f#/	(8aa#X^<\L	.	.	8r	8r	.	8r	.	8A#X/L	8F#\L	.	.	.	4ff#/	8cc#^\L	8aa#XL 8ee^\	(8ee^\L	(8aa#X\L	.
8r	8BB/J	8BB/Jyy	8f#J 8B\	8ddJ 8f#/	8bb\J)	8r	8ryy	8r	8r	.	8r	.	8B/J	8BB\J	.	.	.	.	8dd\J	8bbJ 8dd\	8dd\J)	8bb\J)	.
!LO:SIC:s=8A\	!	!	!	!	!	!	!	!	!	!	!	!	!	!	!	!	!	!	!	!	!	!	!
8Re\	(8AA/	(y8AA/yy	8g 8A\	8ee 8g/	(8ccc#^<\	8Ree/	8Ra\	8AA/	8e 8c#\	.	(>8cc# (8e/	.	8An/	8AAn\	.	.	.	(8gg/	(8cc#^\	8ccc# 8ee\	(8ee 8cc#\	(8ccc#\	.
*	*	*	*	*	*	*	*	*	*	*	*	*	*	*	*	*	*	*v	*v	*	*	*	*
=7	=7	=7	=7	=7	=7	=7	=7	=7	=7	=7	=7	=7	=7	=7	=7	=7	=7	=7	=7	=7	=7	=7
*	*	*	*	*	*	*	*	*	*	*	*^	*	*	*	*	*	*	*	*	*	*	*
*	*	*	*	*	*	*tremolo	*	*	*	*	*	*	*	*	*	*	*	*	*	*	*	*	*
!LO:SIC:s=4D/	!	!	!	!	!	!	!	!	!	!	!	!	!	!	!	!	!	!	!	!	!	!	!
4Re/	4D\)	4D\)yy	8f#L 8A\	8ddL 8f#/	8.ddd\L)	16Ree/LL	4Ra\	4D\	8f#L 8d\	.	8.dd/L)	8f#\L)	.	4A/	4D\	.	2ryy	2ryy	8ff#L 8dd\))	8.dddL 8.dd\	8.dd\L)	8.ddd\L)	.
.	.	.	.	.	.	16Ree/	.	.	.	.	.	.	.	.	.	.	.	.	.	.	.	.	.
.	.	.	8f#J 8A\	8ddJ 8f#/	.	16Ree/	.	.	8f#J 8d\	.	.	8f#\J	.	.	.	.	.	.	8ff#J 8dd\	.	.	.	.
.	.	.	.	.	32ccc#\LL	16Ree/JJ	.	.	.	.	32cc#/LL	.	.	.	.	.	.	.	.	32ccc#LL 32cc#\	(32cc#\LL	(32ccc#\LL	.
*	*	*	*	*	*	*Xtremolo	*	*	*	*	*	*	*	*	*	*	*	*	*	*	*	*	*
.	.	.	.	.	32bb\JJJ	.	.	.	.	.	32b/JJJ	.	.	.	.	.	.	.	.	32bbJJJ 32b\	32b\JJJ	32bb\JJJ	.
4r	8D\L	8D\Lyy	4f# 4A\	4dd 4f#/	4aa\	8Ree/L	4rGG	8D\L	4f# 4d\	.	4a/	4f#\	.	4A/	8D\L	.	.	.	4ff# 4dd\	4aa 4a\	4a/)	4aa\)	.
.	8F#\J	8F#\Jyy	.	.	.	8Ree/J	.	8F#\J	.	.	.	.	.	.	8F#\J	.	.	.	.	.	.	.	.
*	*	*	*	*	*	*	*	*	*	*	*v	*v	*	*	*	*	*	*	*	*	*	*	*
*	*	*	*	*	*	*	*	*	*	*	*	*	*v	*v	*	*	*	*	*	*	*	*
=8	=8	=8	=8	=8	=8	=8	=8	=8	=8	=8	=8	=8	=8	=8	=8	=8	=8	=8	=8	=8	=8
*	*	*	*	*	*	*	*	*	*	*	*	*	*	*	*	*	*^	*	*	*	*
*	*	*	*	*	*	*tremolo	*	*	*	*	*	*	*	*	*	*	*	*	*	*	*	*
!LO:SIC:s=8A\L	!LO:TX:t=P:problem:mixed beam	!LO:TX:t=P:problem:mixed beam	!	!	!	!	!	!LO:TX:t=P:problem:mixed beam	!	!	!	!	!LO:TX:t=P:problem:mixed beam	!	!	!	!	!	!	!	!	!
8Re\L	8A\L	8A\Lyy	8gL 8A\	8cc#L 8e/	(16aa\LL	16Ree/LL	4Ra\	8A\L	4g 4c#\	.	(16a/LL	.	8A\L	.	2ryy	2ryy	16aa/LL	8cc#\L	8ggL 8cc#\	(16aa\LL	(16aa\LL	.
.	.	.	.	.	16gg\)	16Ree/	.	.	.	.	16g/)	.	.	.	.	.	16gg/	.	.	16gg\)	16gg\)	.
!LO:SIC:s=8A\J	!	!	!	!	!	!	!	!	!	!	!	!	!	!	!	!	!	!	!	!	!	!
8Re\J	8AA/	8AA/yy	8g 8A\	8cc# 8e/	16ff#'\	16Ree/	.	8AA/J	.	.	16f#'/	.	8AA/J	.	.	.	16ff#/	8cc#\J	8ggJ 8cc#\	16ff#'\	16ff#'\	.
.	.	.	.	.	16ee'\J	16Ree/JJ	.	.	.	.	16e'/JJ	.	.	.	.	.	16ee/JJ	.	.	16ee'\JJ	16ee'\JJ	.
*	*	*	*	*	*	*Xtremolo	*	*	*	*	*	*	*	*	*	*	*	*	*	*	*	*
!LO:SIC:s=8D/	!	!	!	!	!	!	!	!	!	!	!	!	!	!	!	!	!	!	!	!	!	!
8Re/	8D/J	8D/Jyy	8f#J 8A\	8ddJ 8f#/	8dd'\J	8Ree/	8Ra\	8D\	8f# 8d\	.	8d/	.	8D\	.	.	.	8dd/	8dd\	8ff# 8dd\	8dd\	8dd\	.
8r	8r	8ryy	8r	8r	8r	8r	8ryy	8r	8r	.	8r	.	8r	.	.	.	8r	8ryy	8r	8r	8r	.
!!LO:PB:g=original
=9:|!|:	=9:|!|:	=9:|!|:	=9:|!|:	=9:|!|:	=9:|!|:	=9:|!|:	=9:|!|:	=9:|!|:	=9:|!|:	=9:|!|:	=9:|!|:	=9:|!|:	=9:|!|:	=9:|!|:	=9:|!|:	=9:|!|:	=9:|!|:	=9:|!|:	=9:|!|:	=9:|!|:	=9:|!|:	=9:|!|:
*>B	*>B	*>B	*>B	*>B	*>B	*>B	*>B	*>B	*>B	*>B	*>B	*>B	*>B	*>B	*>B	*>B	*>B	*>B	*>B	*>B	*>B	*>B
*	*	*	*	*	*	*	*^	*	*	*	*	*	*	*	*	*	*	*	*	*	*	*
*	*	*	*	*	*	*tremolo	*	*	*	*	*	*	*	*	*	*	*	*2\right	*	*	*	*	*
!	!	!	!	!	!	!	!	!	!	!	!	!	!	!	!	!	!	!	!	!LO:TX:a:t=Col Picolini //	!LO:TX:a:t=Col 1o. //	!	!
!	!	!	!	!	!	!	!	!	!	!	!	!	!	!	!	!	!	!	!	!LO:TX:t=P:problem:t. 9-13 ukryte	!LO:TX:t=P:problem:t. 9-13 ukryte	!	!
2ryy	4F#\	4F#\yy	8r	8r	16cc#'\LL	16Ree/LL	2rF	2rGG	4r	4r	.	2r	.	4F# 4FF#/	.	2ryy	2ryy	(2ee/	(2a#X\	2ff#t\yy	2ff#t\yy	2ff#t\	.
.	.	.	.	.	(16gg\	16Ree/	.	.	.	.	.	.	.	.	.	.	.	.	.	.	.	.	.
.	.	.	8f#L 8A#X\	8cc#L 8e/	16ff#\	16Ree/	.	.	.	.	.	.	.	.	.	.	.	.	.	.	.	.	.
.	.	.	.	.	16ee#X\JJ)	16Ree/	.	.	.	.	.	.	.	.	.	.	.	.	.	.	.	.	.
.	4r	4ryy	8f# 8A#\	8cc# 8e/	8ff#'\L	16Ree/	.	.	8r	8r	.	.	.	4r	.	.	.	.	.	.	.	.	.
.	.	.	.	.	.	16Ree/	.	.	.	.	.	.	.	.	.	.	.	.	.	.	.	.	.
!	!	!	!	!	!	!	!	!	!	!	!LO:DY:rj	!	!	!	!	!	!	!	!	!	!	!	!
.	.	.	8f#J 8A#\	8cc#J 8e^/	8cc#'^<\J	16Ree/	.	.	8F# 8FF#/	8f# 8A#X\	sf	.	.	.	.	.	.	.	.	.	.	.	.
.	.	.	.	.	.	16Ree/JJ	.	.	.	.	.	.	.	.	.	.	.	.	.	.	.	.	.
*	*	*	*	*	*	*	*v	*v	*	*	*	*	*	*	*	*	*	*	*	*	*	*	*
=10	=10	=10	=10	=10	=10	=10	=10	=10	=10	=10	=10	=10	=10	=10	=10	=10	=10	=10	=10	=10	=10	=10
*	*	*	*	*	*	*	*	*	*^	*	*	*	*	*	*	*	*	*	*	*	*	*
*	*	*	*	*	*	*rep	*	*	*	*	*	*	*	*	*	*	*	*	*	*	*	*	*
2ryy	4F#\	4F#\yy	8r	8r	16dd'\LL	16Ree/LL	2rGG	4r	4r	4ryy	.	2r	.	4F# 4FF#/	.	2ryy	2ryy	2dd/)	2b\)	2ff#t\yy	2ff#t\yy	2ff#t\	.
.	.	.	.	.	(16gg\	16Ree/	.	.	.	.	.	.	.	.	.	.	.	.	.	.	.	.	.
.	.	.	8f#L 8B\	8bL 8d/	16ff#\	16Ree/	.	.	.	.	.	.	.	.	.	.	.	.	.	.	.	.	.
.	.	.	.	.	16ee#X\JJ)	16Ree/	.	.	.	.	.	.	.	.	.	.	.	.	.	.	.	.	.
.	4r	4ryy	8f# 8B\	8b 8d/	8ff#'\L	16Ree/	.	8r	8r	8ryy	.	.	.	4r	.	.	.	.	.	.	.	.	.
.	.	.	.	.	.	16Ree/	.	.	.	.	.	.	.	.	.	.	.	.	.	.	.	.	.
.	.	.	8f#J 8B\	8bJ 8d^/	8dd'^<\J	16Ree/	.	8F# 8FF#/	8d/	8B\	sf	.	.	.	.	.	.	.	.	.	.	.	.
.	.	.	.	.	.	16Ree/JJ	.	.	.	.	.	.	.	.	.	.	.	.	.	.	.	.	.
*	*	*	*	*	*	*Xrep	*	*	*	*	*	*	*	*	*	*	*	*	*	*	*	*	*
*	*	*	*	*	*	*	*	*	*v	*v	*	*	*	*	*	*	*	*	*	*	*	*	*
=11	=11	=11	=11	=11	=11	=11	=11	=11	=11	=11	=11	=11	=11	=11	=11	=11	=11	=11	=11	=11	=11	=11
*	*	*	*	*	*	*rep	*	*	*	*	*	*	*	*	*	*	*	*	*	*	*	*
2ryy	4FF#/	4FF#/yy	8r	8r	16cc#'\LL	16Ree/LL	2rGG	4r	4r	.	2r	.	4F# 4FF#/	.	2ryy	2ryy	4ee/	4a#X\	4ff#t\yy	4ff#t\yy	4ff#t\	.
.	.	.	.	.	(16gg\	16Ree/	.	.	.	.	.	.	.	.	.	.	.	.	.	.	.	.
.	.	.	8f# 8c#\	8a#X/	16ff#\	16Ree/	.	.	.	.	.	.	.	.	.	.	.	.	.	.	.	.
.	.	.	.	.	16ee#X\JJ)	16Ree/	.	.	.	.	.	.	.	.	.	.	.	.	.	.	.	.
!	!	!	!	!	!	!	!	!	!	!	!	!	!	!	!	!	!LO:TX:t=P:problem:wymazane nuty	!	!	!	!	!
.	4AA#X/	4AA#X/yy	8r	8r	8ff#'\L	16Ree/	.	8r	8r	.	.	.	4A#X 4AA#X/	.	.	.	8ff#/L	4cc#\	8ff#\Lyy	8ff#\Lyy	8ff#\L	.
.	.	.	.	.	.	16Ree/	.	.	.	.	.	.	.	.	.	.	.	.	.	.	.	.
.	.	.	8f# 8c#\	8cc#/	8een'^\J	16Ree/	.	8AA#X/	8c# 8F#\	.	.	.	.	.	.	.	8ee/J	.	8een\Jyy	8een\Jyy	8een\J	.
.	.	.	.	.	.	16Ree/JJ	.	.	.	.	.	.	.	.	.	.	.	.	.	.	.	.
*	*	*	*	*	*	*Xtremolo	*	*	*	*	*	*	*	*	*	*	*	*	*	*	*	*
*	*	*	*	*	*	*Xrep	*	*	*	*	*	*	*	*	*	*	*	*	*	*	*	*
=12	=12	=12	=12	=12	=12	=12	=12	=12	=12	=12	=12	=12	=12	=12	=12	=12	=12	=12	=12	=12	=12	=12
2ryy	8BB'/L	8BB'/Lyy	8f#L 8B\	8b/L	(16dd\LL	8Ree/L	4Ra\	8BB/L	8dL 8B\	.	8bL 8d/	.	8BL 8BB'\	.	2ryy	2ryy	8dd/L	8b\L	(y16dd\LLyy	(y16dd\LLyy	(16dd\LL	.
.	.	.	.	.	16ee\	.	.	.	.	.	.	.	.	.	.	.	.	.	16ee\yy	16ee\yy	16ee\	.
*	*	*	*	*	*	*tremolo	*	*	*	*	*	*	*	*	*	*	*	*	*	*	*	*
.	8FF#'/J	8FF#'/Jyy	8f#J 8c#\	8a#X/J	16cc#\	32Ree/LL	.	8FF#/J	8c#J 8A#X\	.	(8a#XJ (8e/	.	8F# 8FF#'\	.	.	.	(8cc#/J	8a#X\J	16cc#\yy	16cc#\yy	16cc#\	.
.	.	.	.	.	.	32Ree/	.	.	.	.	.	.	.	.	.	.	.	.	.	.	.	.
.	.	.	.	.	16dd\JJ)	32Ree/	.	.	.	.	.	.	.	.	.	.	.	.	16dd\JJyy	16dd\JJyy	16dd\JJ	.
.	.	.	.	.	.	32Ree/JJJ	.	.	.	.	.	.	.	.	.	.	.	.	.	.	.	.
*	*	*	*	*	*	*Xtremolo	*	*	*	*	*	*	*	*	*	*	*	*	*	*	*	*
.	(8BB/L	(y8BB/Lyy	4f# 4B\	4b/	(8b\L	4Ree/	4Ra\	4BB/	4d 4B\	.	4b 4d/))	.	(8B 8BB\	.	.	.	8dd/L)	4b\	(y8b\L)yy	(y8b\L)yy	(8b\L)	.
.	8D/J)	8D/J)yy	.	.	8bb\J)	.	.	.	.	.	.	.	8dJ 8D\)	.	.	.	(8ff#/J	.	8bb\J)yy	8bb\J)yy	8bb\J)	.
=13	=13	=13	=13	=13	=13	=13	=13	=13	=13	=13	=13	=13	=13	=13	=13	=13	=13	=13	=13	=13	=13	=13
*	*	*	*	*	*	*tremolo	*	*	*	*	*	*	*	*	*	*	*	*	*	*	*	*
2ryy	4F#\	4F#\yy	8r	8r	16cc#'\LL	16Ree/LL	2rGG	4r	4r	.	2r	.	4F# 4FF#/	.	2ryy	2ryy	(2ee/)	(2a#X\	2ff#t\yy	2ff#t\yy	2ff#t\	.
.	.	.	.	.	(16gg\	16Ree/	.	.	.	.	.	.	.	.	.	.	.	.	.	.	.	.
.	.	.	8f#L 8A#X\	8cc#L 8e/	16ff#\	16Ree/	.	.	.	.	.	.	.	.	.	.	.	.	.	.	.	.
.	.	.	.	.	16ee#X\JJ)	16Ree/	.	.	.	.	.	.	.	.	.	.	.	.	.	.	.	.
.	4r	4ryy	8f# 8A#\	8cc# 8e/	16ff#\LL|	16Ree/	.	8r	8r	.	.	.	4r	.	.	.	.	.	.	.	.	.
.	.	.	.	.	(16cc#\	16Ree/	.	.	.	.	.	.	.	.	.	.	.	.	.	.	.	.
!	!	!	!	!	!	!	!	!	!	!LO:DY:rj	!	!	!	!	!	!	!	!	!	!	!	!
.	.	.	8f#J 8A#\	8cc#J 8e/	16dd^<\	16Ree/	.	8F# 8FF#/	8e 8A#X\	sf	.	.	.	.	.	.	.	.	.	.	.	.
.	.	.	.	.	16cc#\JJ)	16Ree/JJ	.	.	.	.	.	.	.	.	.	.	.	.	.	.	.	.
!!LO:PB:g=original
=14	=14	=14	=14	=14	=14	=14	=14	=14	=14	=14	=14	=14	=14	=14	=14	=14	=14	=14	=14	=14	=14	=14
*	*	*	*	*	*	*	*	*	*^	*	*	*	*	*	*	*	*	*	*	*	*	*
!	!	!	!	!	!	!	!	!	!LO:TX:a:t=Tromboni	!	!	!LO:TX:a:t=Trombe	!	!LO:TX:a:t=Fagotti	!	!LO:TX:a:t=Corni:problem:zamiana miejsca w partyturze	!LO:TX:a:t=Corni	!LO:TX:a:t=P:problem:brak zakończenia łuku	!	!	!	!	!
!	!	!	!	!	!	!LO:TX:t=P:problem:tremolo zapisane jako 1	!	!	!	!	!	!	!	!	!	!	!	!	!LO:TX:b:t=P:problem:brak zakończenia łuku	!	!	!	!
2r	4F#\	4F#\yy	8r	8r	16dd'\LL	16Ree/LL	2rGG	4r	4r	4ryy	.	2r	.	4F# 4FF#/	.	2ryy	2ryy	2dd/)	2b\)	2ff#t\	2ff#t\	2ff#t\	.
.	.	.	.	.	(16gg\	16Ree/	.	.	.	.	.	.	.	.	.	.	.	.	.	.	.	.	.
.	.	.	8f#L 8B\	8bL 8d/	16ff#\	16Ree/	.	.	.	.	.	.	.	.	.	.	.	.	.	.	.	.	.
.	.	.	.	.	16ee#X\JJ)	16Ree/	.	.	.	.	.	.	.	.	.	.	.	.	.	.	.	.	.
.	4r	4ryy	8f# 8B\	8b 8d/	16ff#'\LL	16Ree/	.	8r	8r	8ryy	.	.	.	4r	.	.	.	.	.	.	.	.	.
.	.	.	.	.	(16dd\	16Ree/	.	.	.	.	.	.	.	.	.	.	.	.	.	.	.	.	.
.	.	.	8f#J 8B^<\	8bJ 8d^/	16ee#\	16Ree/	.	8F# 8FF#/	8d/	8B\	.	.	.	.	.	.	.	.	.	.	.	.	.
.	.	.	.	.	16dd\JJ)	16Ree/JJ	.	.	.	.	.	.	.	.	.	.	.	.	.	.	.	.	.
*	*	*	*	*	*	*Xtremolo	*	*	*	*	*	*	*	*	*	*	*	*	*	*	*	*	*
*	*	*	*	*	*	*	*	*	*v	*v	*	*	*	*	*	*	*	*v	*v	*	*	*	*
=15	=15	=15	=15	=15	=15	=15	=15	=15	=15	=15	=15	=15	=15	=15	=15	=15	=15	=15	=15	=15	=15
*	*	*	*tremolo	*tremolo	*tremolo	*	*	*	*	*	*	*	*	*	*	*	*	*	*	*	*
!	!	!	!	!	!LO:TX:a:t=....	!	!	!	!	!	!	!	!	!	!	!	!	!	!	!	!
2r	4Gn\	4Gn\yy	16gn\LL	16gn/LL	16ggn'\LL	4Ree/	4Ra\	4G 4GG/	4g 4G\	.	4g/	.	4G 4GG/	.	2ryy	2ryy	4ggn 4gn\	4ggn\	4ggn\	4ggn\	.
.	.	.	16g\	16g/	16gg'\	.	.	.	.	.	.	.	.	.	.	.	.	.	.	.	.
.	.	.	16g\	16g/	16gg'\	.	.	.	.	.	.	.	.	.	.	.	.	.	.	.	.
.	.	.	16g\JJ	16g/JJ	16gg'\JJ	.	.	.	.	.	.	.	.	.	.	.	.	.	.	.	.
.	8D\L	8D\Lyy	16d\LL	16d/LL	16dd\LL	4r	4ryy	8D\L	8d\L	.	8d/L	.	8D\L	.	.	.	8dd\L	8dd\L	8dd\L	8dd\L	.
.	.	.	16d\	16d/	16dd\	.	.	.	.	.	.	.	.	.	.	.	.	.	.	.	.
.	8E\J	8E\Jyy	16e\	16e/	16ee\	.	.	8E\J	8e\J	.	8e/J	.	8E\J	.	.	.	8ee\J	8ee\J	8ee\J	8ee\J	.
.	.	.	16e\JJ	16e/JJ	16ee\JJ	.	.	.	.	.	.	.	.	.	.	.	.	.	.	.	.
*	*	*	*Xtremolo	*Xtremolo	*Xtremolo	*	*	*	*	*	*	*	*	*	*	*	*	*	*	*	*
=16	=16	=16	=16	=16	=16	=16	=16	=16	=16	=16	=16	=16	=16	=16	=16	=16	=16	=16	=16	=16	=16
2r	8F#\	8F#\yy	8f#\	8f#/	8ff#\	4r	4ryy	8F#\	8f#\	.	8f#/	.	8F#\	.	2ryy	2ryy	8ff#\	8ff#\	8ff#\	8ff#\	.
.	8r	8ryy	8r	8r	8r	.	.	8r	8r	.	8r	.	8r	.	.	.	8r	8r	8r	8r	.
.	.	.	.	.	.	.	.	.	.	.	.	.	.	.	.	.	.	.	(32qqcc#/LLL	(32qqccc#/LLL	.
.	.	.	.	.	.	.	.	.	.	.	.	.	.	.	.	.	.	.	32qqdd#X/	32qqddd#X/	.
.	.	.	.	.	.	.	.	.	.	.	.	.	.	.	.	.	.	.	32qqee#X/JJJ)	32qqeee#X/JJJ	.
.	16F#\LL	16F#\LLyy	16f#LL 16A#X/	8a#X 8c#/	8ff# 8cc# 8f#/	8Ree/	8Ra\	8F#\	8f# 8A#X\	.	8a#X 8c#/	.	16F#/LL	.	.	.	8ff# 8a#X\	8aa#X 8cc#\	8ff#\	8fff#\)	.
.	16E\	16E\yy	16e/	.	.	.	.	.	.	.	.	.	16E/	.	.	.	.	.	.	.	.
.	16D\	16D\yy	16d/	8r	8r	8r	8ryy	8r	8r	.	8r	.	16D/	.	.	.	8r	8r	8r	8r	.
.	16C#\JJ	16C#\JJyy	16c#/JJ	.	.	.	.	.	.	.	.	.	16C#/JJ	.	.	.	.	.	.	.	.
=17	=17	=17	=17	=17	=17	=17	=17	=17	=17	=17	=17	=17	=17	=17	=17	=17	=17	=17	=17	=17	=17
.	.	.	.	(32qqf#/LLL	(32qqff#/LLL	.	.	.	.	.	.	.	.	.	.	.	(32qqf#/LLL	(32qqff#/LLL	(32qqff#/LLL	(32qqff#/LLL	f
.	.	.	.	32qqg#X/	32qqgg#X/	.	.	.	.	.	.	.	.	.	.	.	32qqg#X/	32qqgg#X/	32qqgg#X/	32qqgg#X/	.
.	.	.	.	32qqa#X/JJJ	32qqaa#X/JJJ)	.	.	.	.	.	.	.	.	.	.	.	32qqa#X/JJJ	32qqaa#X/JJJ	32qqaa#X/JJJ	32qqaa#X/JJJ	.
!LO:SIC:s=4D/	!LO:TX:t=P:problem:mixed beam	!LO:TX:t=P:problem:mixed beam	!LO:TX:t=P:problem:mixed beam	!	!	!	!	!	!	!	!	!	!	!	!	!	!	!	!	!	!
4Re/	8BB'/L	8BB'/Lyy	8B'/L	8b/L)	8bb\L	4Ree/	4Ra\	8r	8r	.	8r	.	16BB/	.	2ryy	2ryy	8b/L)	8bb\L)	8bb\)	8bb\)	.
.	.	.	.	.	.	.	.	.	.	.	.	.	16ryy	.	.	.	.	.	.	.	.
.	(16B\L	(y16B\Lyy	(16b\L	(16b/L	(16b\L	.	.	(16BB/LL	(16B\LL	.	16b/LL	.	(16B\LL	.	.	.	(16b/L	(16b\L	(16b\LL	(16bb\LL	.
.	16F#\JJ)	16F#\JJ)yy	16f#\JJ)	16a#X/JJ)	16cc#\JJ)	.	.	16FF#/JJ)	16c#JJ 16A#X\)	.	16cc#JJ 16a#X/	.	16F#\JJ)	.	.	.	16cc#JJ 16a#X/)	16cc#JJ 16a#X\)	16cc#\JJ)	16ccc#\JJ	.
4r	8B'\L	8B'\Lyy	8b'\L	8b'/L	8dd'\L	4r	4ryy	8BB'/L	8dL 8B\	.	8ddL 8b\	.	8B'\L	.	.	.	8ddL 8b\	8ddL 8b'\	8dd'\L	8ddd'\L)	.
.	8G'\J	8G'\Jyy	8g'\J	8b'/J	8ee'\J	.	.	8G'/J	8eJ 8B\	.	8eeJ 8b\	.	8G'\J	.	.	.	8eeJ 8b\	8eeJ 8b'\	8ee'\J	8eee'\J	.
*	*	*	*	*	*	*v	*v	*	*	*	*	*	*	*	*	*	*	*	*	*	*
!!LO:PB:g=original
=18	=18	=18	=18	=18	=18	=18	=18	=18	=18	=18	=18	=18	=18	=18	=18	=18	=18	=18	=18	=18
*	*	*	*	*	*	*	*	*	*	*	*	*^	*	*	*	*^	*	*	*	*
!	!	!	!	!	!	!	!	!	!	!	!	!	!	!	!	!	!	!	!	!	!LO:TX:t=P:problem:takty nr 18-20 zgodnie z tt. nr 2-4	!
!	!	!	!	!	!	!	!	!	!	!	!	!	!	!	!	!	!	!	!	!	!LO:TX:a:t=1.	!
2ryy	8F#\|yy	8F#\|yy	8f#\yy	8a#X/yy	8ff#\	2ryy	8F#\yy	8f#yy 8A#X\yy	.	8ff#yy 8a#X\yy	.	8F#\yy	4ryy	.	2ryy	2ryy	8ff#yy 8a#X\yy	8ryy	8ff#yy 8a#X\yy	8ff#\yy	8fff#\yy	.
.	(y8E\Lyy	(y8E\Lyy	8a#XLyy 8c#\yy	8cc#Lyy 8f#/yy	(8aa#X\L	.	8ryy	8ryy	.	8ryy	.	(y8E\Lyy	.	.	.	.	4ff#/yy	8cc#\Lyy	(8aa#XLyy 8cc#\yy	(y8cc#\Lyy	(y8aa#X\Lyy	.
.	8D\J)yy	8D\J)yy	8bJyy 8d\yy	8ddJyy 8f#/yy	8bb\J)	.	4ryy	4ryy	.	8ryy	.	8D\J)yy	8ryy	.	.	.	.	8b\Jyy	8bbJyyy 8dd\)yy	8dd\J)yy	8bb\J)yy	.
.	8BB\yy	8BB\yy	8ryy	8dd\yy	(8ddd\	.	.	.	.	8ddyy 8b\yy	.	8B/yy	8BB/yy	.	.	.	8dd/yy	8dd\yy	8ryy	8ryy	8ryy	.
*	*	*	*	*	*	*	*	*	*	*	*	*v	*v	*	*	*	*	*	*	*	*	*
=19	=19	=19	=19	=19	=19	=19	=19	=19	=19	=19	=19	=19	=19	=19	=19	=19	=19	=19	=19	=19	=19
*	*	*	*	*	*	*^	*	*	*	*^	*	*	*	*	*	*	*	*	*	*	*
*	*	*	*	*	*	*tremolo	*	*	*	*	*	*	*	*	*	*	*	*	*	*	*	*	*
!	!	!	!	!	!	!	!	!	!	!	!	!	!	!	!	!	!	!	!	!	!	!LO:TX:a:t=2.	!
2ryy	4FF#/yy	4FF#/yy	8ryy	8ff#'\Lyy	8fff#\L)	16Ree/LLyy	4Ra\yy	4FF#/yy	8ryy	.	8ff#/Lyy	4a#X\yy	.	4F#yy 4FF#/yy	.	2ryy	2ryy	8ff#'/Lyy	8ff#\Lyy	2ff#t\yy	2ff#t\yy	2ff#t\yy	.
.	.	.	.	.	.	16Ree/yy	.	.	.	.	.	.	.	.	.	.	.	.	.	.	.	.	.
.	.	.	8eyy 8c#\yy	(y16ee\Lyy	(16eee\L	16Ree/yy	.	.	8eyy 8c#\yy	.	16ee/Lyy	.	.	.	.	.	.	(y16ee/Lyy	16ee\Lyy	.	.	.	.
.	.	.	.	16dd\JJyy	16ddd\JJ)	16Ree/yy	.	.	.	.	16dd/JJyy	.	.	.	.	.	.	16dd/JJ)yy	16dd\JJyy	.	.	.	.
.	4AA#X/yy	4AA#X/yy	4eyy 4c#\yy	4cc#\)yy	4ccc#'\	16Ree/yy	4ryy	4AA#X/yy	4eyy 4c#\yy	.	4cc#/yy	4cc#\yy	.	4A#Xyy 4AA#X/yy	.	.	.	4cc#/yy	4cc#\yy	.	.	.	.
.	.	.	.	.	.	16Ree/yy	.	.	.	.	.	.	.	.	.	.	.	.	.	.	.	.	.
.	.	.	.	.	.	16Ree/yy	.	.	.	.	.	.	.	.	.	.	.	.	.	.	.	.	.
.	.	.	.	.	.	16Ree/JJyy	.	.	.	.	.	.	.	.	.	.	.	.	.	.	.	.	.
=20	=20	=20	=20	=20	=20	=20	=20	=20	=20	=20	=20	=20	=20	=20	=20	=20	=20	=20	=20	=20	=20	=20	=20
!	!	!	!	!	!	!	!	!	!	!	!	!	!	!	!	!	!	!	!	!	!	!LO:TX:a:t=3.	!
2ryy	4BB/yy	4BB/yy	8ryy	(y16ee\LLyy	(16eee\LL	16Ree/LLyy	4Ra\yy	4BB/yy	8ryy	.	16ee/LLyy	4b\yy	.	4Byy 4BB\yy	.	2ryy	2ryy	(y16ee/LLyy	16ee\LLyy	2ff#t\yy	2ff#t\yy	2ff#t\yy	.
.	.	.	.	16dd\)yy	16ddd\)	16Ree/yy	.	.	.	.	16dd/yy	.	.	.	.	.	.	16dd/)yy	16dd\yy	.	.	.	.
.	.	.	8dyy 8B/yy	(y16dd\yy	(16ddd\	16Ree/yy	.	.	8dyy 8B\yy	.	16dd/yy	.	.	.	.	.	.	(y16dd/yy	16dd\yy	.	.	.	.
.	.	.	.	16cc#\JJ)yy	16ccc#\JJ)	16Ree/yy	.	.	.	.	16cc#/JJyy	.	.	.	.	.	.	16cc#/JJ)yy	16cc#\JJyy	.	.	.	.
.	(y32qqBB/LLLyy	(y32qqBB/LLLyy	.	.	.	.	.	.	.	.	.	.	.	(y32qqBLLLyy 32qqBB\yy	.	.	.	.	.	.	.	.	.
.	32qqC#/JJJyy	32qqC#/JJJyy	.	.	.	.	.	.	.	.	.	.	.	32qqc#JJJyy 32qqC#\yy	.	.	.	.	.	.	.	.	.
.	4D/)yy	4D/)yy	4dyy 4B/yy	4b\yy	4bb\	16Ree/yy	4ryy	4D/yy	4f#yy 4B\yy	.	4b/yy	4b\yy	.	4dyy 4D\)yy	.	.	.	4b\yy	4ryy	.	.	.	.
.	.	.	.	.	.	16Ree/yy	.	.	.	.	.	.	.	.	.	.	.	.	.	.	.	.	.
.	.	.	.	.	.	16Ree/yy	.	.	.	.	.	.	.	.	.	.	.	.	.	.	.	.	.
.	.	.	.	.	.	16Ree/JJyy	.	.	.	.	.	.	.	.	.	.	.	.	.	.	.	.	.
*	*	*	*	*	*	*Xtremolo	*	*	*	*	*	*	*	*	*	*	*	*	*	*	*	*	*
*	*	*	*	*	*	*	*	*	*	*	*v	*v	*	*	*	*	*	*v	*v	*	*	*	*
=21	=21	=21	=21	=21	=21	=21	=21	=21	=21	=21	=21	=21	=21	=21	=21	=21	=21	=21	=21	=21	=21
.	(32qqF#/LLL	(y32qqF#/LLLyy	32qqf#\LLL	(32qqf#/LLL	(32qqff#/LLL	.	.	.	.	.	.	.	(32qqF#/LLL	.	.	.	(32qqf#/LLL	(32qqff#/LLL	(32qqff#/LLL	(32qqff#/LLL	.
.	32qqG#X/	32qqG#X/yy	32qqg#X\	32qqg#X/	32qqgg#X/	.	.	.	.	.	.	.	32qqG#X/	.	.	.	32qqg#X/	32qqgg#X/	32qqgg#X/	32qqgg#X/	.
!	!	!	!	!	!	!	!	!	!	!	!	!	!	!	!	!LO:TX:a:t=Corni	!	!	!	!	!
.	32qqA#X/JJJ)	32qqA#X/JJJ)yy	32qqa#X\JJJ	32qqa#X/JJJ)	32qqaa#X/JJJ	.	.	.	.	.	.	.	32qqA#X/JJJ	.	.	.	32qqa#X/JJJ	32qqaa#X/JJJ	32qqaa#X/JJJ	32qqaa#X/JJJ)	.
!LO:SIC:s=4D/	!	!	!	!	!	!	!	!	!	!	!	!	!	!	!	!	!	!	!	!	!
4Re/	8B\L	8B\Lyy	8b\L	8b/L	8bb\L)	4Ree/	4Ra\	8r	8r	.	8r	.	8B\L)	.	2ryy	2ryy	8b/L)	8bb\L)	8bb\L)	8bb\L	.
.	(16B\L	(y16B\Lyy	16b\L	16b/L	(16b\L	.	.	16BB/LL	(16B\LL	.	(16b/LL	.	16B\L	.	.	.	(16b/L	(16b\L	(16b\L	(16bb\L	.
.	16F#\JJ)	16F#\JJ)yy	16f#\JJ	16a#X/JJ	16cc#\JJ)	.	.	16FF#/JJ	16c#JJ 16A#X\)	.	16cc#JJ 16a#X/)	.	16F#\JJ	.	.	.	16cc#JJ 16a#X/)	16cc#JJ 16a#X\)	16cc#\JJ)	16ccc#\JJ)	.
4r	8B'\L	8B'\Lyy	8b\L	8b/L	8dd|\L	4r	4ryy	8BB/L	8dL 8B\	.	8ddL 8b/	.	8B\L	.	.	.	8ddL 8b\	8ddL 8b'\	8dd'\L	8ddd'\L	.
!	!	!	!	!	!	!	!	!	!	!	!	!	!	!	!	!	!	!	!	!LO:TX:a:t=P:problem:brak początku łuku	!
.	8An'\J	8An'\Jyy	8an\J	8bJ 8f#/	8dd#X|\J	.	.	8AAn/J	8d#XJ 8B\	.	8dd#XJ 8f#/	.	8An\J	.	.	.	8dd#XJ 8b\	8dd#XJ 8b'\	8dd#X'\J	(8ddd#X'\J	.
*	*	*	*	*	*	*v	*v	*	*	*	*	*	*	*	*	*	*	*	*	*	*
!!LO:PB:g=original
=22	=22	=22	=22	=22	=22	=22	=22	=22	=22	=22	=22	=22	=22	=22	=22	=22	=22	=22	=22	=22
*	*	*	*	*^	*	*	*	*^	*	*^	*	*	*	*	*	*^	*^	*	*	*
2r	8G\	8G\yy	8g\	8b 8e/	8ryy	8ee\	2r	8GG/	8e 8B\	4ryy	.	8ee 8g/	8ryy	.	8G\	.	2ryy	2ryy	8ee 8b\	8ryy	8ee 8b\	8ryy	8ee\	8eee\)	.
.	(8D#X\L	(y8D#X\Lyy	(8d#X\L	4b/	8f#\L	(8ff#\L	.	8r	8r	.	.	8r	8ryy	.	(8D#X^<\L	.	.	.	8ff#/L	4b^\	(8ff#/L	4b^\	(8ff#\L	(8fff#\L	.
.	8E\J)	8E\J)yy	8e\J)	.	8e\J	8gg\J)	.	8r	8r	8ryy	.	8r	8ryy	.	8E\J)	.	.	.	8gg/J	.	8gg/J)	.	8gg\J)	8ggg\J)	.
!	!	!	!	!	!	!	!	!	!	!	!	!	!	!	!	!	!	!	!	!	!	!	!LO:TX:a:t=P:problem:skreślona nuta	!	!
.	8E\	8E\yy	8e 8c#\	(8cc# (8g/	8ryy	(8ccc#\	.	8E\	8c#/	8G\	.	8cc#/	8g\	.	8E\	.	.	.	8gg/	8cc#\	8ee/	8cc#\	8r	(8ccc#\	.
*	*	*	*	*v	*v	*	*	*	*	*	*	*	*	*	*	*	*	*	*	*	*	*	*	*	*
=23	=23	=23	=23	=23	=23	=23	=23	=23	=23	=23	=23	=23	=23	=23	=23	=23	=23	=23	=23	=23	=23	=23	=23	=23
*	*	*	*	*	*	*^	*	*	*	*	*	*	*	*	*	*	*	*	*	*	*	*	*	*
*	*	*	*	*	*	*tremolo	*	*	*	*	*	*	*	*	*	*	*	*	*	*	*	*	*	*	*
!LO:SIC:s=4D/	!	!	!	!	!	!	!	!	!	!	!	!	!	!	!	!	!	!	!	!	!	!	!	!	!
4Re/	4F#\	4F#\yy	4f# 4B\	4dd 4f#/))	8.ddd\L)	16Ree/LL	4Ra\	4F#\	4d/	4B\	.	8.dd/L	4f#\	.	4F#\	.	2ryy	2ryy	4ff#/	8.dd\L	4dd/	4b\	4ff#tt\	8.ddd\L)	.
.	.	.	.	.	.	16Ree/	.	.	.	.	.	.	.	.	.	.	.	.	.	.	.	.	.	.	.
.	.	.	.	.	.	16Ree/	.	.	.	.	.	.	.	.	.	.	.	.	.	.	.	.	.	.	.
.	.	.	.	.	(32ccc#\LL	16Ree/JJ	.	.	.	.	.	32cc#/LL	.	.	.	.	.	.	.	32cc#\LL	.	.	.	(32ccc#\LL	.
*	*	*	*	*	*	*Xtremolo	*	*	*	*	*	*	*	*	*	*	*	*	*	*	*	*	*	*	*
.	.	.	.	.	32bb\JJJ	.	.	.	.	.	.	32b/JJJ	.	.	.	.	.	.	.	32b\JJJ	.	.	.	32bb\JJJ	.
4r	8FF#/L	8FF#/Lyy	8a#XL 8c#\	8eeL 8f#/	8fff#\L)	8Ree/L	4rGG	8F#L 8FF#\	8c#/L	8A#X\L	.	8a#X/L	8e\L	.	8F#L 8FF#/	.	.	.	8ff#/L	8a#X\L	8eeL 8cc#\	4ryy	8ff#\L	8fff#\L)	.
.	8FF#/J	8FF#/Jyy	8a#J 8c#\	8eeJ 8f#/	8aa#X'\J	8Ree/J	.	8F#J 8FF#\	8c#/J	8A#\J	.	8a#/J	8e\J	.	8F#J 8FF#/	.	.	.	8ff#/J	8cc#\J	8eeJ 8cc#\	.	8ee\J	8aa#X'\J	.
*	*	*	*	*	*	*	*	*	*v	*v	*	*	*	*	*	*	*	*	*v	*v	*	*	*	*	*
*	*	*	*	*	*	*	*	*	*	*	*v	*v	*	*	*	*	*	*	*	*	*	*	*
=24	=24	=24	=24	=24	=24	=24	=24	=24	=24	=24	=24	=24	=24	=24	=24	=24	=24	=24	=24	=24	=24	=24
2r	8BB/	8BB/yy	8b 8d\	8dd 8f#/	16bb'\LL	8Ree/	4Ra\	8F# 8BB\	8d 8B\	.	8b 8d/	.	8B 8BB\	.	2ryy	2ryy	16ff# 16dd\	8dd/	8b\	8dd\	16bb'\LL	.
.	.	.	.	.	(16ff#'\	.	.	.	.	.	.	.	.	.	.	.	(16f#/LL	.	.	.	(16ff#\	.
*	*	*	*	*	*	*tremolo	*	*	*	*	*	*	*	*	*	*	*	*	*	*	*	*
.	(8FF#/L	(y8FF#/Lyy	(8eL 8c#\	(8a#X/L	16ddd\	32Ree/LLL	.	8F#L 8FF#\	(8c#L 8A#X\	.	8a#XL 8e/	.	(8F#L 8FF#\	.	.	.	16dd/	(8aa#XL 8ee\	8ryy	(8aa#X\L	16ddd\	.
.	.	.	.	.	.	32Ree/	.	.	.	.	.	.	.	.	.	.	.	.	.	.	.	.
.	.	.	.	.	16ccc#\JJ	32Ree/	.	.	.	.	.	.	.	.	.	.	16cc#/JJ)	.	.	.	16ccc#\JJ	.
.	.	.	.	.	.	32Ree/JJ	.	.	.	.	.	.	.	.	.	.	.	.	.	.	.	.
*	*	*	*	*	*	*Xtremolo	*	*	*	*	*	*	*	*	*	*	*	*	*	*	*	*
.	8BB/J)	8BB/J)yy	8dJ 8B\)	8b/J)	8bb\)	8Ree/J	8Ra\	8F#J 8BB\	8dJ 8B\)	.	8bJ 8d/	.	8BJ 8BB\)	.	.	.	8b/	8bbJ 8dd\)	4ryy	8bb\J)	8bb\)	.
.	8r	8ryy	8r	8r	8r	8r	8ryy	8r	8r	.	8r	.	8r	.	.	.	8r	8r	.	8r	8r	.
*	*	*	*	*	*	*v	*v	*	*	*	*	*	*	*	*	*	*	*v	*v	*	*	*
=:|!	=:|!	=:|!	=:|!	=:|!	=:|!	=:|!	=:|!	=:|!	=:|!	=:|!	=:|!	=:|!	=:|!	=:|!	=:|!	=:|!	=:|!	=:|!	=:|!	=:|!
*-	*-	*-	*-	*-	*-	*-	*-	*-	*-	*-	*-	*-	*-	*-	*-	*-	*-	*-	*-	*-
!!!system-decoration: ({s1,s2}<s3,s4>{s5,s6}<s7,s8>{s9,s10}<s11>)({s12,s13}<s14>{s15,s16})<s17>
!!!RDF**kern: > = above
!!!RDF**kern: < = below
!!!RDF**kern: | = vertical stroke
!!!ENC: Andrzej Kubiczek
!!!END: 2021-05-05
!!!ENC: Marcin Jachim
!!!END: 2021-04-23
